X: 26
T:Sackett's Harbor
% Nottingham Music Database
S:via PR
M:4/4
L:1/4
K:Am
A2 |"Am"E/2G/2A/2B/2 AA/2B/2|c/2B/2A/2G/2 BE|"G"GG G/2A/2B/2c/2|\
d/2c/2B/2c/2 d/2c/2B/2c/2|
"Am"E/2G/2A/2B/2 AA/2B/2|"Am"c/2B/2A/2G/2 "Em"BE|\
"Am"c/2d/2c/2A/2 "G"B/2c/2B/2G/2|"Am"AA ::
A/2B/2c/2d/2 |"C"e/2d/2c/2d/2 eg|e/2d/2c/2B/2 AB/2c/2|"G"d/2c/2B/2c/2 dg|
d/2c/2B/2A/2 Gc/2d/2|"C"e/2d/2c/2d/2 eg|"C"e/2d/2c/2B/2 "Am"A2|\
"Am"c/2d/2c/2A/2 "G"B/2c/2B/2G/2|"Am"AA :|


